X: 03005
T: APRIL'S BLUEBERRY PIE
C: Bob McQuillen Aug 76
B: Bob's Note Book 03 #5
%R: waltz
%D:1976
Z: 2020 John Chambers <jc:trillian.mit.edu>
M: 3/4
L: 1/8
K: G
D2 \
| G4G2 | A4GA | B2d2d2 | g4d2 | e4fg | d2B2G2 | c4Bc | A2F2D2 |\
| G4G2 | A4GA | B2d2d2 | g4fe | d2B3G | A4GA | (G4G2 | G4) ||
|| GA \
| B4B2 | A4BA | G2B2d2 | d2B2d2 | g2d3B | G2A2B2 | A3B AB | c2B2A2 |\
| B4B2 | A4BA | G2B2d2 | d2B2d2 | g2d2B2 | A4G2 | (G4G2 | G4) |]
%%begintext align
%% For April Limber, who
%% cooks a real good one.
%% Wish I had a piece right now!!
%%endtext

%%sep 1 1 500

%%sep 1 1 500

